src/assets/img/icons/payment_system/not_selected/visa_bright.svg

<svg width="50" height="32" viewBox="0 0 50 32" fill="none" xmlns="http://www.w3.org/2000/svg">
<g clip-path="url(#clip0_1098_17121)">
<path d="M21.4925 23.7692H17.4746L19.9877 8.28076H24.0054L21.4925 23.7692Z" fill="#919EAB"/>
<path d="M36.0575 8.6594C35.2649 8.34602 34.008 8 32.4537 8C28.4859 8 25.6918 10.109 25.6747 13.1241C25.6417 15.3487 27.6752 16.5843 29.196 17.326C30.7505 18.084 31.2789 18.5787 31.2789 19.2543C31.2631 20.2919 30.0228 20.7702 28.866 20.7702C27.2619 20.7702 26.4024 20.5236 25.0962 19.9463L24.5671 19.6989L24.0049 23.1757C24.9472 23.6036 26.6834 23.9834 28.4859 24C32.7018 24 35.4464 21.9237 35.4789 18.7105C35.495 16.9474 34.4213 15.5964 32.1064 14.4924C30.7011 13.7837 29.8405 13.3059 29.8405 12.5808C29.8569 11.9216 30.5684 11.2464 32.1547 11.2464C33.4609 11.2134 34.4206 11.5263 35.1476 11.8395L35.511 12.0039L36.0575 8.6594Z" fill="#919EAB"/>
<path fill-rule="evenodd" clip-rule="evenodd" d="M43.2497 8.28027H46.3576L49.599 23.7685H45.8788C45.8788 23.7685 45.5147 21.9889 45.3994 21.4451H40.2408C40.0916 21.8568 39.3975 23.7685 39.3975 23.7685H35.1816L41.1497 9.56535C41.5632 8.56015 42.2913 8.28027 43.2497 8.28027ZM43.0018 13.9467C43.0018 13.9467 41.7286 17.3904 41.3977 18.2802H44.7373C44.5721 17.5059 43.8113 13.7984 43.8113 13.7984L43.5305 12.4639C43.4122 12.8075 43.2412 13.28 43.1259 13.5987C43.0477 13.8147 42.9951 13.9601 43.0018 13.9467Z" fill="#919EAB"/>
<path d="M14.119 8.28079L10.1842 18.8424L9.75422 16.7004C9.02675 14.2288 6.74525 11.5434 4.19922 10.2082L7.80339 23.7528H12.0522L18.3676 8.28079H14.119Z" fill="#919EAB"/>
<path d="M6.53053 8.28079H0.0661336L0 8.59374C5.04263 9.87904 8.38227 12.9772 9.75437 16.701L8.34909 9.58274C8.11773 8.59352 7.40674 8.31342 6.53053 8.28079Z" fill="#919EAB"/>
</g>
<defs>
<clipPath id="clip0_1098_17121">
<rect width="49.5992" height="32" fill="white"/>
</clipPath>
</defs>
</svg>

<svg width="50" height="32" fill="none" xmlns="http://www.w3.org/2000/svg"><g clip-path="url(#a)" fill="#919EAB"><path d="M21.492 23.77h-4.017l2.513-15.49h4.017l-2.512 15.49ZM36.057 8.66A9.93 9.93 0 0 0 32.454 8c-3.968 0-6.762 2.109-6.78 5.124-.032 2.225 2.001 3.46 3.522 4.202 1.554.758 2.083 1.253 2.083 1.928-.016 1.038-1.256 1.516-2.413 1.516-1.604 0-2.464-.246-3.77-.824l-.529-.247-.562 3.477c.942.428 2.678.807 4.48.824 4.217 0 6.961-2.076 6.994-5.29.016-1.763-1.058-3.114-3.373-4.218-1.405-.708-2.266-1.186-2.266-1.911.017-.66.728-1.335 2.315-1.335a6.846 6.846 0 0 1 2.993.593l.363.165.546-3.345Z"/><path fill-rule="evenodd" clip-rule="evenodd" d="M43.25 8.28h3.108l3.241 15.489h-3.72s-.364-1.78-.48-2.324h-5.158l-.843 2.323h-4.216L41.15 9.566c.413-1.005 1.141-1.285 2.1-1.285Zm-.248 5.667s-1.273 3.443-1.604 4.333h3.34c-.166-.774-.927-4.482-.927-4.482l-.28-1.334c-.119.343-.29.816-.405 1.135-.078.216-.13.361-.124.348Z"/><path d="m14.119 8.28-3.935 10.562-.43-2.142c-.727-2.471-3.009-5.157-5.555-6.492l3.604 13.545h4.25L18.367 8.28h-4.249Z"/><path d="M6.53 8.28H.067L0 8.595c5.043 1.285 8.382 4.383 9.754 8.107L8.35 9.583c-.231-.99-.942-1.27-1.818-1.302Z"/></g><defs><clipPath id="a"><path fill="#fff" d="M0 0h49.599v32H0z"/></clipPath></defs></svg>
